tools/download-figma-icons/icons/outlined-medium/emobility.svg

<svg width="25" height="25" viewBox="0 0 25 25" fill="none" xmlns="http://www.w3.org/2000/svg">
<path fill-rule="evenodd" clip-rule="evenodd" d="M8.77037 23.4377H6.64166V20.0052H8.77037C9.71716 20.0052 10.4866 20.7754 10.4866 21.7222C10.4866 22.6682 9.71716 23.4377 8.77037 23.4377ZM18.7249 12.2067H17.3336H14.1933H6.06358H2.9248H1.56243V8.45782L2.69982 7.70945H17.5891L18.7249 8.45782V12.2067ZM16.5525 15.0244C16.5525 15.4595 16.1986 15.8134 15.7635 15.8134C15.3291 15.8134 14.9745 15.4595 14.9745 15.0244V13.769H16.5525V15.0244ZM5.28239 15.0244C5.28239 15.4595 4.9293 15.8134 4.49418 15.8134C4.05985 15.8134 3.70597 15.4595 3.70597 15.0244V13.769H5.28239V15.0244ZM5.46909 1.56236H14.8182L16.6665 6.14709H3.62317L5.46909 1.56236ZM23.0659 9.36711H20.2872V8.03676C20.2872 7.77429 20.1552 7.529 19.9357 7.38448L18.4585 6.41191L16.0704 0.489018C15.9509 0.193732 15.6642 0 15.3455 0H4.94174C4.62223 0 4.33554 0.193732 4.2168 0.489799L1.83343 6.40879L0.352312 7.38448C0.132019 7.529 0 7.77429 0 8.03676V12.9879C0 13.4199 0.349968 13.7691 0.781178 13.7691H2.14355V15.0244C2.14355 16.3212 3.19814 17.3758 4.49412 17.3758C5.79088 17.3758 6.84469 16.3212 6.84469 15.0244V13.7691H13.4121V15.0244C13.4121 16.3212 14.4674 17.3758 15.7634 17.3758C17.0594 17.3758 18.1147 16.3212 18.1147 15.0244V13.7691H19.506C19.938 13.7691 20.2872 13.4199 20.2872 12.9879V10.9295H23.0659C23.2705 10.9295 23.4369 11.0959 23.4369 11.3013V20.5692C23.4369 20.7747 23.2705 20.9411 23.0659 20.9411H11.9442C11.5919 19.5107 10.3076 18.4428 8.77029 18.4428H5.8604C5.42919 18.4428 5.07922 18.7928 5.07922 19.224V19.5959H3.36297C2.93098 19.5959 2.58179 19.945 2.58179 20.377C2.58179 20.809 2.93098 21.1582 3.36297 21.1582H5.07922V22.2855H3.36297C2.93098 22.2855 2.58179 22.6354 2.58179 23.0666C2.58179 23.4986 2.93098 23.8478 3.36297 23.8478H5.07922V24.2189C5.07922 24.6509 5.42919 25.0001 5.8604 25.0001H8.77029C10.3076 25.0001 11.5911 23.933 11.9442 22.5034H23.0659C24.1322 22.5034 24.9993 21.6355 24.9993 20.5692V11.3013C24.9993 10.235 24.1322 9.36711 23.0659 9.36711ZM5.58387 9.36116H3.40516C2.97317 9.36116 2.62398 9.71034 2.62398 10.1423C2.62398 10.5743 2.97317 10.9235 3.40516 10.9235H5.58387C6.01586 10.9235 6.36505 10.5743 6.36505 10.1423C6.36505 9.71034 6.01586 9.36116 5.58387 9.36116ZM14.6743 9.37344H16.853C17.285 9.37344 17.6341 9.72263 17.6341 10.1546C17.6341 10.5866 17.285 10.9358 16.853 10.9358H14.6743C14.2423 10.9358 13.8931 10.5866 13.8931 10.1546C13.8931 9.72263 14.2423 9.37344 14.6743 9.37344Z" fill="black"/>
</svg>

<svg xmlns="http://www.w3.org/2000/svg" width="25" height="25" fill="none" viewBox="0 0 25 25"><path fill="currentColor" fill-rule="evenodd" d="M8.77 23.438H6.642v-3.433H8.77a1.717 1.717 0 0 1 0 3.433m9.955-11.231H1.562v-3.75L2.7 7.71h14.89l1.135.749zm-2.173 2.817a.79.79 0 0 1-1.577 0V13.77h1.577zm-11.27 0a.79.79 0 0 1-1.576 0V13.77h1.576zM5.47 1.562h9.35l1.847 4.585H3.624zm17.597 7.805h-2.779v-1.33a.78.78 0 0 0-.351-.653l-1.477-.972L16.07.489A.78.78 0 0 0 15.345 0H4.942a.78.78 0 0 0-.725.49L1.833 6.409l-1.48.975A.78.78 0 0 0 0 8.037v4.95c0 .433.35.782.781.782h1.363v1.255a2.354 2.354 0 0 0 2.35 2.352 2.353 2.353 0 0 0 2.35-2.352V13.77h6.568v1.255a2.354 2.354 0 0 0 2.351 2.352 2.354 2.354 0 0 0 2.352-2.352V13.77h1.391a.78.78 0 0 0 .781-.781V10.93h2.779a.37.37 0 0 1 .37.371v9.268a.37.37 0 0 1-.37.372H11.944a3.28 3.28 0 0 0-3.174-2.498H5.86a.78.78 0 0 0-.78.781v.372H3.362a.78.78 0 1 0 0 1.562h1.716v1.127H3.363a.78.78 0 1 0 0 1.563h1.716v.37c0 .433.35.782.781.782h2.91a3.28 3.28 0 0 0 3.174-2.497h11.122a1.936 1.936 0 0 0 1.933-1.934v-9.268a1.936 1.936 0 0 0-1.933-1.934M5.584 9.361H3.405a.78.78 0 1 0 0 1.563h2.179a.78.78 0 1 0 0-1.563m9.09.012h2.179a.78.78 0 1 1 0 1.563h-2.179a.78.78 0 1 1 0-1.563" clip-rule="evenodd"/></svg>
